X: 008
T: Jenny's Whim
B: 204 Favourite Country Dances
N: Published by Straight & Skillern, London ca.1775
F: http://imslp.org/wiki/204_Favourite_Country_Dances_(Various) p.4 #8
Z: 2014 John Chambers <jc:trillian.mit.edu>
N: The two strains are 7 and 6 measures long.
M: C
L: 1/8
K: F
%  - - - - - - - - - - - - - - - - - - - - - - - - -
c2 |\
AFFF FFFF | AFcA Tf2ed | cAFF FFFF |\
GFEF G2c2 | AFcA f2ed | ecfd gedc | A2c2 c2 :|
|: g2 |\
eccc cccc | edef g2fe | fFFF FFFF |\
AFcA f2ed | cBAG FAGB | A2F2 F2 :|
%  - - - - - - - - - - - - - - - - - - - - - - - - -
%%begintext align
%% Hands across back again cross over one
%% Cu. right & left at top
%%endtext

%%sep 1 1 500
%%sep 1 1 500
